packages/dnb-ui-lib/assets/icons/camera.svg

<svg width="16" height="16" viewBox="0 0 16 16" fill="none" xmlns="http://www.w3.org/2000/svg">
<path d="M15 12.4083C15 12.9605 14.5523 13.4083 14 13.4083H2C1.44772 13.4083 1 12.9605 1 12.4083L1 5.49918C1 4.94689 1.44772 4.49918 2 4.49918H4.5546C4.72338 4.49918 4.88524 4.43213 5.00458 4.31279L6.5409 2.77647C6.66024 2.65713 6.8221 2.59009 6.99087 2.59009H9.00914C9.17792 2.59009 9.33978 2.65713 9.45912 2.77647L10.9954 4.31279C11.1148 4.43213 11.2766 4.49918 11.4454 4.49918H14C14.5523 4.49918 15 4.94689 15 5.49918V12.4083Z" stroke="black" stroke-width="1.5"/>
<path d="M9.9091 8.63554C9.9091 9.6899 9.05437 10.5446 8.00001 10.5446C6.94565 10.5446 6.09092 9.6899 6.09092 8.63554C6.09092 7.58117 6.94565 6.72645 8.00001 6.72645C9.05437 6.72645 9.9091 7.58117 9.9091 8.63554Z" stroke="black" stroke-width="1.5"/>
</svg>

<svg width="16" height="16" viewBox="0 0 16 16" fill="none" xmlns="http://www.w3.org/2000/svg"><path d="M15 12.408a1 1 0 01-1 1H2a1 1 0 01-1-1V5.5a1 1 0 011-1h2.555c.168 0 .33-.067.45-.186L6.54 2.776a.636.636 0 01.45-.186h2.018c.169 0 .33.067.45.186l1.536 1.537c.12.12.282.186.45.186H14a1 1 0 011 1v6.91z" stroke="#000" stroke-width="1.5"/><path d="M9.91 8.636a1.91 1.91 0 11-3.819 0 1.91 1.91 0 013.818 0z" stroke="#000" stroke-width="1.5"/></svg>
